static/images/ecosystem/set/forest-morning.svg

<?xml version="1.0" encoding="UTF-8" standalone="no"?>
<svg
   width="109.8mm"
   height="202.4mm"
   version="1.1"
   viewBox="0 0 109.8 202.4"
   id="svg2039"
   sodipodi:docname="forest-morning.svg"
   inkscape:version="1.1.1 (1:1.1+202109281944+c3084ef5ed)"
   xmlns:inkscape="http://www.inkscape.org/namespaces/inkscape"
   xmlns:sodipodi="http://sodipodi.sourceforge.net/DTD/sodipodi-0.dtd"
   xmlns:xlink="http://www.w3.org/1999/xlink"
   xmlns="http://www.w3.org/2000/svg"
   xmlns:svg="http://www.w3.org/2000/svg">
  <sodipodi:namedview
     id="namedview2041"
     pagecolor="#ffffff"
     bordercolor="#999999"
     borderopacity="1"
     inkscape:pageshadow="0"
     inkscape:pageopacity="0"
     inkscape:pagecheckerboard="0"
     inkscape:document-units="mm"
     showgrid="false"
     inkscape:snap-page="true"
     inkscape:zoom="0.70710678"
     inkscape:cx="663.97327"
     inkscape:cy="300.52038"
     inkscape:window-width="1920"
     inkscape:window-height="940"
     inkscape:window-x="0"
     inkscape:window-y="0"
     inkscape:window-maximized="1"
     inkscape:current-layer="svg2039" />
  <defs
     id="defs2021">
    <linearGradient
       inkscape:collect="always"
       id="linearGradient5293">
      <stop
         style="stop-color:#ffffff;stop-opacity:0.63648361"
         offset="0"
         id="stop5289" />
      <stop
         style="stop-color:#fefdfa;stop-opacity:0"
         offset="1"
         id="stop5291" />
    </linearGradient>
    <linearGradient
       id="linearGradient6612"
       x1="56.92"
       x2="58.25"
       y1=".4241"
       y2="121.2"
       gradientTransform="matrix(1,0,0,0.38650146,0,88.813859)"
       gradientUnits="userSpaceOnUse">
      <stop
         stop-color="#c9f4ca"
         offset="0"
         id="stop2011" />
      <stop
         stop-color="#3c5c2b"
         offset="1"
         id="stop2013" />
    </linearGradient>
    <linearGradient
       id="linearGradient6669"
       x1="57.11"
       x2="57.46"
       y1="155.4"
       y2="202.5"
       gradientUnits="userSpaceOnUse"
       gradientTransform="matrix(0.99909016,0,0,0.994336,0.22709318,0.78842929)">
      <stop
         stop-color="#367116"
         offset="0"
         id="stop2016"
         style="stop-color:#715916;stop-opacity:1" />
      <stop
         stop-color="#79db44"
         offset="1"
         id="stop2018"
         style="stop-color:#f3dd9d;stop-opacity:1" />
    </linearGradient>
    <linearGradient
       inkscape:collect="always"
       xlink:href="#linearGradient5293"
       id="linearGradient5287"
       x1="88.808655"
       y1="41.584843"
       x2="17.871353"
       y2="112.88463"
       gradientUnits="userSpaceOnUse" />
  </defs>
  <path
     style="fill:#55b834;fill-opacity:1;stroke:none;stroke-width:0.264586px;stroke-linecap:butt;stroke-linejoin:miter;stroke-opacity:1"
     d="M -0.2273,89.090187 24.846254,63.877115 46.231892,78.007984 67.241869,48.62654 l 9.344898,10.597893 7.336209,-5.260139 17.200614,18.14712 8.67641,-8.675856 -1.5e-4,75.760342 -110.02715,0.004 z"
     id="path2675"
     sodipodi:nodetypes="ccccccccccc" />
  <rect
     x="3.7470027e-15"
     y="139.2"
     width="109.80001"
     height="63.199997"
     fill="url(#linearGradient6669)"
     style="fill:url(#linearGradient6669);stroke-width:0.99671;paint-order:stroke markers fill"
     id="rect2025"
     ry="0" />
  <path
     d="M 85.24995,0 H 98.3 V 167.2 H 82.720211 Z"
     style="fill:#8f7728;stroke-width:1.10282;stroke-opacity:0;paint-order:stroke markers fill;fill-opacity:1"
     id="path2027" />
  <path
     d="m 40.752192,0 4.509096,0.02584 3.437004,150.7 H 39.215 Z"
     style="fill:#8f7728;stroke-width:1.62101;stroke-opacity:0;paint-order:stroke markers fill;fill-opacity:1"
     id="path2029" />
  <path
     d="m 74.43,0 2.874,0.02651 -5.165,154.7 h -6.044 z"
     style="fill:#8f7728;stroke-opacity:0;paint-order:stroke markers fill;fill-opacity:1"
     id="path2033" />
  <path
     d="m 104.3,0 1.716,0.02489 1.308,145.1 h -3.609 z"
     style="fill:#8f7728;stroke-opacity:0;paint-order:stroke markers fill;fill-opacity:1"
     id="path2035" />
  <path
     style="fill:url(#linearGradient5287);stroke:none;stroke-width:0.264583px;stroke-linecap:butt;stroke-linejoin:miter;stroke-opacity:1;fill-opacity:1"
     d="M 98.299999,0 0,109.40448 -0.2273,139.1999 49.021616,138.87241 109.8,35.698856 V 0 Z"
     id="path5249" />
  <path
     d="M 0,0 H 18.393803 L 35.47417,178.29524 H 11.160413 Z"
     style="fill:#8f7728;stroke-width:1.42267;stroke-opacity:0;paint-order:stroke markers fill;fill-opacity:1"
     id="path2031" />
</svg>

<?xml version="1.0" encoding="UTF-8"?>
<svg width="109.8mm" height="202.4mm" version="1.1" viewBox="0 0 109.8 202.4" xmlns="http://www.w3.org/2000/svg" xmlns:xlink="http://www.w3.org/1999/xlink">
 <defs>
  <linearGradient id="linearGradient6669" x1="57.11" x2="57.46" y1="155.4" y2="202.5" gradientTransform="matrix(.99909 0 0 .99434 .22709 .78843)" gradientUnits="userSpaceOnUse">
   <stop stop-color="#715916" offset="0"/>
   <stop stop-color="#f3dd9d" offset="1"/>
  </linearGradient>
  <linearGradient id="linearGradient5287" x1="88.809" x2="17.871" y1="41.585" y2="112.88" gradientUnits="userSpaceOnUse">
   <stop stop-color="#fff" stop-opacity=".63648" offset="0"/>
   <stop stop-color="#fefdfa" stop-opacity="0" offset="1"/>
  </linearGradient>
 </defs>
 <path d="m-0.2273 89.09 25.074-25.213 21.386 14.131 21.01-29.381 9.3449 10.598 7.3362-5.2601 17.201 18.147 8.6764-8.6759-1.5e-4 75.76-110.03 4e-3z" fill="#55b834"/>
 <rect x="3.747e-15" y="139.2" width="109.8" height="63.2" ry="0" fill="url(#linearGradient6669)" stroke-width=".99671" style="paint-order:stroke markers fill"/>
 <g fill="#8f7728" stroke-opacity="0">
  <path d="m85.25 0h13.05v167.2h-15.58z" style="paint-order:stroke markers fill"/>
  <path d="m40.752 0 4.5091 0.02584 3.437 150.7h-9.4833z" style="paint-order:stroke markers fill"/>
  <path d="m74.43 0 2.874 0.02651-5.165 154.7h-6.044z" style="paint-order:stroke markers fill"/>
  <path d="m104.3 0 1.716 0.02489 1.308 145.1h-3.609z" style="paint-order:stroke markers fill"/>
 </g>
 <path d="m98.3 0-98.3 109.4-0.2273 29.795 49.249-0.32749 60.778-103.17v-35.699z" fill="url(#linearGradient5287)"/>
 <path d="m0 0h18.394l17.08 178.3h-24.314z" fill="#8f7728" stroke-opacity="0" style="paint-order:stroke markers fill"/>
</svg>
